images/icons/arrow-blue.svg

<svg fill="#0e4ed5" height="8pt" viewBox="0 0 8 8" width="8pt" xmlns="http://www.w3.org/2000/svg"><path d="m6.066406 3.777344-3.695312-3.6875002c-.125-.1171876-.320313-.1171876-.441406 0-.121094.1250002-.121094.3203122.003906.4375002l3.476562 3.472656-3.476562 3.472656c-.125.117188-.125.3125-.003906.4375.058593.0625.140624.089844.222656.089844.078125 0 .15625-.027344.21875-.089844l3.695312-3.6875c.0625-.0625.09375-.140625.09375-.222656s-.03125-.160156-.09375-.222656zm0 0"/></svg>

<?xml version="1.0" encoding="UTF-8"?>
<svg xmlns="http://www.w3.org/2000/svg" xmlns:xlink="http://www.w3.org/1999/xlink" width="8pt" height="8pt" viewBox="0 0 8 8" version="1.1" fill="rgb(14, 78, 213)">
<g id="surface1">
<path d="M 6.066406 3.777344 L 2.371094 0.0898438 C 2.246094 -0.0273438 2.050781 -0.0273438 1.929688 0.0898438 C 1.808594 0.214844 1.808594 0.410156 1.933594 0.527344 L 5.410156 4 L 1.933594 7.472656 C 1.808594 7.589844 1.808594 7.785156 1.929688 7.910156 C 1.988281 7.972656 2.070312 8 2.152344 8 C 2.230469 8 2.308594 7.972656 2.371094 7.910156 L 6.066406 4.222656 C 6.128906 4.160156 6.160156 4.082031 6.160156 4 C 6.160156 3.917969 6.128906 3.839844 6.066406 3.777344 Z M 6.066406 3.777344 "/>
</g>
</svg>
